!!!SOCIAL_FUNCTION:	songs of war
!!!PDT:	1913
!!!OTL: No_11_Song_of_the_War_Messenger.krn
!!!REG: Great_Lakes
!!!LANG: Non-Tone
!!!LING_GROUP: Algonquin
**kern	**kern
*staff2	*staff1
*clefF4	*clefF4
*k[b-e-a-]	*k[b-e-a-]
*M2/4	*M2/4
16r	16e-\
=1	=1
12GG^/L	8.f\L
12GG/J	.
12r	.
.	16f\Jk
12GG^/L	8.f\L
12GG/J	.
12r	.
.	16e-\Jk
=2	=2
12GG^/L	(16e-\LK
.	8.c\J)
12GG/J	.
12r	.
12GG^/L	4c\
12GG/J	.
12r	.
=3||	=3||
*M3/4	*M3/4
2.r	8c\L
.	16c\L
.	16c\JJ
.	4c\
.	8.c\L
.	16c\Jk
=4||	=4||
*M2/4	*M2/4
2r	4..e-\
.	16e-\
=5	=5
2r	8.e-\L
.	16e-\Jk
.	8.e-\L
.	16e-\Jk
=6	=6
2r	(16e-\LK
.	8.c\J)
.	4c\
=7||	=7||
*M3/4	*M3/4
2.r	8c\L
.	16c\L
.	16c\JJ
.	4c\
.	8.c\L
.	16c\Jk
=8||	=8||
*M2/4	*M2/4
2r	4..c\
.	16c\
=9	=9
2r	8.F\L
.	16F\Jk
.	8.F\L
.	16F\Jk
=10	=10
2r	(16F\LK
.	8.E-\J)
.	4E-\
=11||	=11||
*M3/4	*M3/4
2.r	8C/L
.	16C/L
.	16C/JJ
.	4C/
.	8.C/L
.	16C/Jk
=12||	=12||
*M2/4	*M2/4
2r	4..E-\
.	16E-\
=13	=13
2r	8.F\L
.	16F\Jk
.	8.F\L
.	16E-\Jk
=14	=14
2r	(16E-/LK
.	8.C/J)
.	4C/
=15||	=15||
*M3/4	*M3/4
2.r	8C/L
.	16C/L
.	16C/JJ
.	4C/
.	8.C/L
.	16C/Jk
=16||	=16||
*M2/4	*M2/4
2r	2C/
==	==
*-	*-
